X:21602
T:Liverpool Hornpipe
R:Hornpipe
B:Tuneworks Tunebook 2 (https://www.tuneworks.co.uk/)
G:Tuneworks
Z:Jon Warbrick <jon.warbrick@googlemail.com>
M:4/4
L:1/8
K:D
|: AG | "D"FDFA dfaf | "G"gfec "D"dcBA | "G"G2 BG "D"F2 AF | "A"EDEF GBAG | 
"D"FDFA dfaf | "G"gfec "D"dcBA | "G"dfaf "A"bgec | "D"d2 d2 d2 :|
|: A2 | "D"d2 fd "A"c2 ec | "Bm"BABc dcBA | "G"G2 BG "D"F2 AF | "A"EDEF GBAG | 
"D"FDFA dfaf | "G"gfec "D"dcBA | "G"dfaf "A"bgec | "D"d2 d2 d2 :|